Papirus/16x16/apps/substance.svg

<svg width="16" height="16" version="1.1" xmlns="http://www.w3.org/2000/svg">
 <path d="m8 0-7 3.5v3.6666666l10.6 3.5333334-3.6 1.8-4-2v-1l-3-1v4l7 3.5 7-3.5v-3.6666666l-10.6-3.5333334 3.6-1.8 4 2v1l3 1v-4z" style="fill:#e52e38"/>
</svg>

<svg xmlns="http://www.w3.org/2000/svg" width="16" height="16" version="1.1">
 <path style="fill:#e52e38" d="M 8,0 1,3.5 V 7.1667 L 11.6,10.7 8,12.5 4,10.5 V 9.5 L 1,8.5 V 12.5 L 8,16 15,12.5 V 8.8333 L 4.4,5.3 8,3.5 12,5.5 V 6.5 L 15,7.5 V 3.5 Z"/>
</svg>
